icons/actions/24/distribute-horizontal-page.svg

<?xml version="1.0"?>
<!-- Created with Inkscape (http://www.inkscape.org/) -->
<svg xmlns:dc="http://purl.org/dc/elements/1.1/" xmlns:cc="http://creativecommons.org/ns#" xmlns:rdf="http://www.w3.org/1999/02/22-rdf-syntax-ns#" xmlns:svg="http://www.w3.org/2000/svg" xmlns="http://www.w3.org/2000/svg" xmlns:sodipodi="http://sodipodi.sourceforge.net/DTD/sodipodi-0.dtd" xmlns:inkscape="http://www.inkscape.org/namespaces/inkscape" width="24" height="24" id="svg3869" version="1.1" inkscape:version="0.91 r13725" sodipodi:docname="distribute-horizontal-page.svg">
  <defs id="defs3871">
    <style type="text/css" id="current-color-scheme">
      .ColorScheme-Text {
        color:#4d4d4d;
      }
      .ColorScheme-Background {
        color:#eff0f1;
      }
      .ColorScheme-Highlight {
        color:#3daee9;
      }
      .ColorScheme-ViewText {
        color:#31363b;
      }
      .ColorScheme-ViewBackground {
        color:#fcfcfc;
      }
      .ColorScheme-ViewHover {
        color:#93cee9;
      }
      .ColorScheme-ViewFocus{
        color:#3daee9;
      }
      .ColorScheme-ButtonText {
        color:#31363b;
      }
      .ColorScheme-ButtonBackground {
        color:#eff0f1;
      }
      .ColorScheme-ButtonHover {
        color:#93cee9;
      }
      .ColorScheme-ButtonFocus{
        color:#3daee9;
      }
      </style>
    <inkscape:perspective sodipodi:type="inkscape:persp3d" inkscape:vp_x="0 : 12 : 1" inkscape:vp_y="0 : 1000 : 0" inkscape:vp_z="24 : 12 : 1" inkscape:persp3d-origin="12 : 8 : 1" id="perspective4146"/>
    <inkscape:perspective sodipodi:type="inkscape:persp3d" inkscape:vp_x="0 : 12 : 1" inkscape:vp_y="0 : 1000 : 0" inkscape:vp_z="24 : 12 : 1" inkscape:persp3d-origin="12 : 8 : 1" id="perspective4090"/>
    <clipPath clipPathUnits="userSpaceOnUse" id="clipPath16">
      <path d="m 0,706.465 1490.926,0 L 1490.926,0 0,0 0,706.465 Z" id="path18"/>
    </clipPath>
    <clipPath clipPathUnits="userSpaceOnUse" id="clipPath24">
      <path d="m 22.1953,686.117 1447.7347,0 0,-667.1902 -1447.7347,0 L 22.1953,686.117 Z" id="path26"/>
    </clipPath>
    <clipPath clipPathUnits="userSpaceOnUse" id="clipPath4534">
      <rect ry="15.999986" y="8.0000038" x="8.0000114" height="31.999971" width="31.999989" id="rect4536" style="fill:url(#linearGradient4538);fill-opacity:1;stroke:none"/>
    </clipPath>
    <clipPath clipPathUnits="userSpaceOnUse" id="clipPath4584">
      <rect ry="15.999986" y="507.798" x="392.57144" height="31.999971" width="31.999989" id="rect4586" style="fill:url(#linearGradient4588);fill-opacity:1;stroke:none"/>
    </clipPath>
    <clipPath clipPathUnits="userSpaceOnUse" id="clipPath4550">
      <rect ry="15.999986" y="507.798" x="392.57144" height="31.999971" width="31.999989" id="rect4552" style="fill:url(#linearGradient4554);fill-opacity:1;stroke:none"/>
    </clipPath>
    <clipPath clipPathUnits="userSpaceOnUse" id="clipPath4568">
      <rect ry="15.999986" y="507.798" x="392.57144" height="31.999971" width="31.999989" id="rect4570" style="fill:url(#linearGradient4572);fill-opacity:1;stroke:none"/>
    </clipPath>
    <clipPath clipPathUnits="userSpaceOnUse" id="clipPath4528">
      <rect ry="15.999986" y="8.0000038" x="8.0000114" height="31.999971" width="31.999989" id="rect4530" style="fill:url(#linearGradient4532);fill-opacity:1;stroke:none"/>
    </clipPath>
    <clipPath clipPathUnits="userSpaceOnUse" id="clipPath4578">
      <rect ry="15.999986" y="507.798" x="392.57144" height="31.999971" width="31.999989" id="rect4580" style="fill:url(#linearGradient4582);fill-opacity:1;stroke:none"/>
    </clipPath>
    <clipPath clipPathUnits="userSpaceOnUse" id="clipPath4562">
      <rect ry="15.999986" y="507.798" x="392.57144" height="31.999971" width="31.999989" id="rect4564" style="fill:url(#linearGradient4566);fill-opacity:1;stroke:none"/>
    </clipPath>
    <clipPath clipPathUnits="userSpaceOnUse" id="clipPath4544">
      <rect ry="15.999986" y="507.798" x="392.57144" height="31.999971" width="31.999989" id="rect4546" style="fill:url(#linearGradient4548);fill-opacity:1;stroke:none"/>
    </clipPath>
    <clipPath clipPathUnits="userSpaceOnUse" id="clipPath4390">
      <rect ry="15.999986" y="8.0000038" x="8.0000114" height="31.999971" width="31.999989" id="rect4392" style="fill:url(#linearGradient4532);fill-opacity:1;stroke:none"/>
    </clipPath>
    <clipPath clipPathUnits="userSpaceOnUse" id="clipPath4407">
      <rect ry="15.999986" y="507.798" x="392.57144" height="31.999971" width="31.999989" id="rect4409" style="fill:url(#linearGradient4582);fill-opacity:1;stroke:none"/>
    </clipPath>
    <clipPath clipPathUnits="userSpaceOnUse" id="clipPath4424">
      <rect ry="15.999986" y="507.798" x="392.57144" height="31.999971" width="31.999989" id="rect4426" style="fill:url(#linearGradient4566);fill-opacity:1;stroke:none"/>
    </clipPath>
    <clipPath clipPathUnits="userSpaceOnUse" id="clipPath4441">
      <rect ry="15.999986" y="507.798" x="392.57144" height="31.999971" width="31.999989" id="rect4443" style="fill:url(#linearGradient4548);fill-opacity:1;stroke:none"/>
    </clipPath>
    <clipPath id="clipPath4528-1" clipPathUnits="userSpaceOnUse">
      <rect style="fill:url(#linearGradient4532);fill-opacity:1;stroke:none" id="rect4530-7" width="31.999989" height="31.999971" x="8.0000114" y="8.0000038" ry="15.999986"/>
    </clipPath>
    <clipPath id="clipPath4578-8" clipPathUnits="userSpaceOnUse">
      <rect style="fill:url(#linearGradient4582);fill-opacity:1;stroke:none" id="rect4580-7" width="31.999989" height="31.999971" x="392.57144" y="507.798" ry="15.999986"/>
    </clipPath>
    <clipPath id="clipPath4562-8" clipPathUnits="userSpaceOnUse">
      <rect style="fill:url(#linearGradient4566);fill-opacity:1;stroke:none" id="rect4564-8" width="31.999989" height="31.999971" x="392.57144" y="507.798" ry="15.999986"/>
    </clipPath>
    <clipPath id="clipPath4544-1" clipPathUnits="userSpaceOnUse">
      <rect style="fill:url(#linearGradient4548);fill-opacity:1;stroke:none" id="rect4546-1" width="31.999989" height="31.999971" x="392.57144" y="507.798" ry="15.999986"/>
    </clipPath>
  </defs>
  <sodipodi:namedview id="base" pagecolor="#ffffff" bordercolor="#666666" borderopacity="1.0" inkscape:pageopacity="0.0" inkscape:pageshadow="2" inkscape:zoom="22.627416" inkscape:cx="11.061087" inkscape:cy="12.032563" inkscape:document-units="px" inkscape:current-layer="layer1" showgrid="true" fit-margin-top="0" fit-margin-left="0" fit-margin-right="0" fit-margin-bottom="0" inkscape:window-width="1366" inkscape:window-height="709" inkscape:window-x="-4" inkscape:window-y="0" inkscape:window-maximized="1" inkscape:showpageshadow="false" inkscape:object-nodes="true" inkscape:snap-bbox="true">
    <inkscape:grid type="xygrid" id="grid4132"/>
    <sodipodi:guide position="4,18" orientation="18,0" id="guide4138"/>
    <sodipodi:guide position="5,3" orientation="0,18" id="guide4140"/>
    <sodipodi:guide position="20,2.0000174" orientation="-18,0" id="guide4142"/>
    <sodipodi:guide position="2,21" orientation="0,-18" id="guide4144"/>
    <sodipodi:guide position="3,19.000017" orientation="16,0" id="guide4146"/>
    <sodipodi:guide position="2,4" orientation="0,16" id="guide4148"/>
    <sodipodi:guide position="21,20" orientation="-16,0" id="guide4150"/>
    <sodipodi:guide position="2,20" orientation="0,-16" id="guide4152"/>
  </sodipodi:namedview>
  <metadata id="metadata3874">
    <rdf:RDF>
      <cc:Work rdf:about="">
        <dc:format>image/svg+xml</dc:format>
        <dc:type rdf:resource="http://purl.org/dc/dcmitype/StillImage"/>
        <dc:title/>
      </cc:Work>
    </rdf:RDF>
  </metadata>
  <g inkscape:label="Capa 1" inkscape:groupmode="layer" id="layer1" transform="translate(-326,-532.3622)">
    <g transform="translate(-51.85714,-6.71427)" id="layer1-1" inkscape:label="Capa 1">
      <path id="rect4109" transform="translate(378.85714,540.07647)" d="m 3,3 0,1 0,15 1,0 11,0 1.333984,-1 L 18,16.75 19,16 19,4 19,3 3,3 Z m 1,1 14,0 0,12 -3,0 0,2 L 4,18 4,4 Z m 1,3 0,8 5,0 0,-8 -5,0 z m 7,0 0,8 5,0 0,-8 -5,0 z M 6,8 9,8 9,14 6,14 6,8 Z m 7,0 3,0 0,6 -3,0 0,-6 z" style="opacity:1;fill:currentColor;fill-opacity:1;stroke:none" inkscape:connector-curvature="0" class="ColorScheme-Text"/>
    </g>
  </g>
</svg>

<svg xmlns="http://www.w3.org/2000/svg" viewBox="0 0 24 24">
  <defs id="defs3051">
    <style type="text/css" id="current-color-scheme">
      .ColorScheme-Text {
        color:#4d4d4d;
      }
      </style>
  </defs>
  <a transform="translate(1,1)">
 <path 
    style="fill:currentColor;fill-opacity:1;stroke:none" 
    d="m3 3v1 15h1 11l1.333984-1 1.666016-1.25 1-.75v-12-1h-16m1 1h14v12h-3v2h-11v-14m1 3v8h5v-8h-5m7 0v8h5v-8h-5m-6 1h3v6h-3v-6m7 0h3v6h-3v-6" 
    class="ColorScheme-Text"
    />
 </a>
</svg>
